X:60
T:Nit my Dolly Palls Frake away. WHG.059
R:song
S:W.H.Giles MS,Bampton,Oxfordshire,1839p62
O:England
H:donated by Mrs W.R.Kettlewell to VWML,Apr 1927.
A:Bampton, Oxfordshire
N:The title line is clear, but not in plain English.
N:Palls could be Balls, Frake could be False (!)
N:The MS has G2 for last note bar 16, and a pause
N:over the final double bar-line.
Z:PJHeadford – VMP 2009
M:6/8
L:1/8
Q:3/8=90
K:G
dd|d3 dGA|G2F E2F|G3 E2F|G3 G2B/B/|
ABc BB2|B2e e2^d|e2z2EE|E3 E2d|
d2c Bcd|e2c HA2d|d2c Bcd|e2c HA2G/G/|
G2F EFG|A2A B3|dgB dgB|B2A G3||
G2F EFG|A2A B3|dgB dgB|B2A G2|]

